**kern	**text	**kern	**text	**kern	**text	**kern	**text	**kern	**text	**cdata-harm
*staff5	*staff5	*staff4	*staff4	*staff3	*staff3	*staff2	*staff2	*staff1	*staff1	*
=1-	=1-	=1-	=1-	=1-	=1-	=1-	=1-	=1-	=1-	=1-
*clefF4	*	*clefGv2	*	*clefGv2	*	*clefG2	*	*clefG2	*	*
*k[]	*	*k[]	*	*k[]	*	*k[]	*	*k[]	*	*
*M4/4	*	*M4/4	*	*M4/4	*	*M4/4	*	*M4/4	*	*
1r	.	1r	.	1r	.	2.d/	Ar-	2r	.	<CON_5v
.	.	.	.	.	.	.	.	[2a/	Ar-	.
.	.	.	.	.	.	4a/	si	.	.	.
=2	=2	=2	=2	=2	=2	=2	=2	=2	=2	.
1r	.	2r	.	1r	.	4f/	men-	4a/]	.	.
.	.	.	.	.	.	8f/L	trea	4dd\	si	.
.	.	.	.	.	.	8g/J	voi	.	.	.
.	.	[2A/	Ar-	.	.	[2a/	piac-	4cc\	men-	.
.	.	.	.	.	.	.	.	8cc\L	trea	.
.	.	.	.	.	.	.	.	8dd\J	voi	.
=3	=3	=3	=3	=3	=3	=3	=3	=3	=3	.
1r	.	4A/]	.	2r	.	2a/]	.	4ee\	piac-	.
.	.	4d\	si	.	.	.	.	4ff\	que	.
.	.	4c\	men-	[2A/	Ar-	2a/	que	4ee\	men-	.
.	.	8c\L	trea	.	.	.	.	8ee\L	trea	.
.	.	8d\J	voi	.	.	.	.	8dd\J	voi	.
=4	=4	=4	=4	=4	=4	=4	=4	=4	=4	.
2r	.	4e\	piac-	4A/]	.	4a/	men-	4cc#\	piac-	.
.	.	4f\	que	4d\	si	8a/L	trea	4dd\	que	.
.	.	.	.	.	.	8g/J	voi	.	.	.
[2A\	Ar-	4e\	men-	4c\	men-	[2a/	piac-	4r	.	.
.	.	8e\L	trea	8c\L	trea	.	.	4cc#\	Et	.
.	.	8d\J	voi	8d\J	voi	.	.	.	.	.
=5	=5	=5	=5	=5	=5	=5	=5	=5	=5	.
4A\]	.	4c\	piac-	4e\	piac-	4a/]	.	4cc\	al-	.
4d\	si	4d\	que	4f\	que	4f/	.	8b/L	.	.
.	.	.	.	.	.	.	.	8a/J	.	.
4c\	men-	2r	.	4e\	men-	2g/	.	4cc\	.	.
8c\L	trea	.	.	8e\L	trea	.	.	4ee\	cor-	.
8B\J	voi	.	.	8d\J	voi	.	.	.	.	.
=6	=6	=6	=6	=6	=6	=6	=6	=6	=6	.
4A\	piac-	1r	.	4c\	piac-	[1a/	que	2ff\	tes-	.
4D\	que	.	.	4d\	que	.	.	.	.	.
4F\	men-	.	.	4r	.	.	.	2cc\	seas-	.
8F\L	trea	.	.	4f\	Et	.	.	.	.	.
8G\J	voi	.	.	.	.	.	.	.	.	.
=7	=7	=7	=7	=7	=7	=7	=7	=7	=7	.
1A\	piac-	4c\	Et	4f\	al	2a/]	.	2.cc\	set-	.
.	.	2c\	al	8e\L	.	.	.	.	.	.
.	.	.	.	8d\J	.	.	.	.	.	.
.	.	.	.	4e\	.	2a/	Et	.	.	.
.	.	8B/L	.	4f\	cor-	.	.	4dd\	.	.
.	.	8A/J	.	.	.	.	.	.	.	.
=8	=8	=8	=8	=8	=8	=8	=8	=8	=8	.
1E\	.	4B\	.	2e\	tes-	4a/	al	1ee\	.	.
.	.	4B\	cor-	.	.	8g#/L	.	.	.	.
.	.	.	.	.	.	8f#/J	.	.	.	.
.	.	2e\	te-	2B\	seaf-	4g#/	.	.	.	.
.	.	.	.	.	.	4g#/	cor-	.	.	.
=9	=9	=9	=9	=9	=9	=9	=9	=9	=9	.
4AA/	que	4e\	se	2c\	fet-	2.a/	tes-	[1ee\	to	.
4A\	Et	4c\	Et	.	.	.	.	.	.	.
4A\	al-	4c\	al-	2e\	to	.	.	.	.	.
8G\L	.	8B/L	.	.	.	[4bn\	seaf-	.	.	.
8F#\J	.	8A/J	.	.	.	.	.	.	.	.
=10	=10	=10	=10	=10	=10	=10	=10	=10	=10	.
4G#\	.	4B\	.	2r	.	4b\]	.	2ee\]	.	.
4A\	cor-	4c\	cor-	.	.	2a/	fet-	.	.	.
4D\	te-	4f\	te-	4r	.	.	.	2r	.	.
4E\	seaf-	[4e\	seaf-	4e\	Pa-	4g#/	.	.	.	.
=11	=11	=11	=11	=11	=11	=11	=11	=11	=11	.
4.F\	fet-	4e\]	.	4c\	g&ograve;	[1a/	to	2r	.	.
.	.	2d\	fet-	4A/	tri-	.	.	.	.	.
8G\	.	.	.	.	.	.	.	.	.	.
2A\	.	.	.	2e\	bu-	.	.	2ee\	Pa-	.
.	.	4c#\	.	.	.	.	.	.	.	.
=12	=12	=12	=12	=12	=12	=12	=12	=12	=12	.
1D\	to	2d\	to	4.d\	to	2a/]	.	2ff\	g&ograve;	.
.	.	.	.	8d\	Pa-	.	.	.	.	.
.	.	2d\	Pa-	2f\	g&ograve;	2a/	Pa-	2dd\	tri-	.
=13	=13	=13	=13	=13	=13	=13	=13	=13	=13	.
1r	.	4.c\	g&ograve;	4e\	tri-	4cc\	g&ograve;	2ee\	bu-	.
.	.	.	.	2a\	bu-	4ee\	tri-	.	.	.
.	.	8d\	tri-	.	.	.	.	.	.	.
.	.	2e\	bu-	.	.	2b\	bu-	2ee\	to	.
.	.	.	.	4g#\	.	.	.	.	.	.
=14	=14	=14	=14	=14	=14	=14	=14	=14	=14	.
1r	.	2A/	to	2a\	to	2cc\	to	4r	.	>
.	.	.	.	.	.	.	.	8cc\L	di	<CON_5v+2mot
.	.	.	.	.	.	.	.	8dd\J	sos-	.
.	.	2r	.	4r	.	4r	.	4ee\	pir-	.
.	.	.	.	8f\L	di	8a/L	di	4dd\	il	.
.	.	.	.	8g\J	sos-	8b/J	sos-	.	.	.
=15	=15	=15	=15	=15	=15	=15	=15	=15	=15	.
2A\	Pa-	2r	.	4a\	pir-	4cc\	pir-	2.cc\	pe-	.
.	.	.	.	4e\	il	4a/	il	.	.	.
4F\	g&ograve;	4r	.	[2f\	pe-	[2a/	pe-	.	.	.
4D\	tri-	[4d\	Pa-	.	.	.	.	4dd\	to	.
=16	=16	=16	=16	=16	=16	=16	=16	=16	=16	.
2A\	bu-	4d\]	.	4f\]	.	2a/]	.	4r	.	.
.	.	2c\	go	8e\L	.	.	.	8a/L	di	.
.	.	.	.	8d\J	.	.	.	8b/J	sos-	.
2A\	to	.	.	2e\	.	2a/	to	[2cc\	pir	.
.	.	4A/	tri-	.	.	.	.	.	.	.
=17	=17	=17	=17	=17	=17	=17	=17	=17	=17	.
4r	.	2a\	bu-	2A/	to	2r	.	2cc\]	.	.
8F\L	di	.	.	.	.	.	.	.	.	.
8G\J	sos-	.	.	.	.	.	.	.	.	.
4A\	pir	4e\	to	4r	.	2a/	Ma	4r	.	.
4D\	il	8f\L	di	8A/L	di	.	.	4ff\	il	.
.	.	8g\J	sos-	8B/J	sos-	.	.	.	.	.
=18	=18	=18	=18	=18	=18	=18	=18	=18	=18	.
1A\	pet-	4a\	pir	4c#\	pir	[1a/	poi	4ee\	pet-	.
.	.	4f\	il	4d\	il	.	.	2dd\	.	.
.	.	2e\	pet-	2e\	pet-	.	.	.	.	.
.	.	.	.	.	.	.	.	4cc#\	.	.
=19	=19	=19	=19	=19	=19	=19	=19	=19	=19	.
2D\	to.	2d\	to.	2f#\	to.	2a/]	.	2dd\	to.	>
2A\	Ma	4r	.	2r	.	2cc#\	Ma	2ee\	Ma	<HOM_4v
.	.	4a\	Ma	.	.	.	.	.	.	.
=20	=20	=20	=20	=20	=20	=20	=20	=20	=20	.
2d\	poi	2a\	poi	1r	.	2dd\	poi	2ff\	poi	.
4c#\	che'l	4e\	che'l	.	.	4a/	che'l	4ee\	che'l	.
[4d\	vos-	[4f\	vos-	.	.	[4a/	vos-	[4dd\	vos-	.
=21	=21	=21	=21	=21	=21	=21	=21	=21	=21	.
4d\]	.	4f\]	.	1r	.	4a/]	.	4dd\]	.	.
4A\	troa-	4f\	troa-	.	.	4a/	troa-	4cc\	troa-	.
2B-\	mo-	4f\	mo-	.	.	4a/	mo-	[2dd\	mo-	.
.	.	8e\L	.	.	.	4g/	.	.	.	.
.	.	8d\J	.	.	.	.	.	.	.	.
=22	=22	=22	=22	=22	=22	=22	=22	=22	=22	.
2A\	re	2e\	re	4r	.	2a/	re	4dd\]	.	>
.	.	.	.	4A/	Vol-	.	.	4cc#\	re	<HOMlib_4v
2G\	Vol-	2g\	Vol-	8B\L	ges-	2r	.	2dd\	Vol-	.
.	.	.	.	8c\J	.	.	.	.	.	.
.	.	.	.	8d\L	.	.	.	.	.	.
.	.	.	.	8B\J	.	.	.	.	.	.
=23	=23	=23	=23	=23	=23	=23	=23	=23	=23	.
2A\	ges-	8e\L	ges-	2c\	.	1r	.	8cc\L	ges-	.
.	.	8d\J	.	.	.	.	.	8b\J	.	.
.	.	8e\L	.	.	.	.	.	8cc\L	.	.
.	.	8f\J	.	.	.	.	.	8dd\J	.	.
4c\	tein	4e\	.	4g\	tein	.	.	4ee\	.	.
[4F\	al-	4f\	tein	[4a\	al-	.	.	4cc\	tein	.
=24	=24	=24	=24	=24	=24	=24	=24	=24	=24	.
4F\]	.	8d\L	al-	4a\]	.	1r	.	4.ff\	al-	.
.	.	8c\J	tra	.	.	.	.	.	.	.
4F\	tra	2c\	par-	4a\	tra	.	.	.	.	.
.	.	.	.	.	.	.	.	8ee\	tra	.
2G\	par-	.	.	2d\	par-	.	.	2dd\	par-	.
.	.	4B\	.	.	.	.	.	.	.	.
=25	=25	=25	=25	=25	=25	=25	=25	=25	=25	.
2c\	te	4c\	te	4e\	te	1r	.	1cc\	te	>
.	.	4A/	Vol-	4e\	Vol-	.	.	.	.	<CONlib_5v+2doub
2r	.	8A/L	gest-	8e\L	ges-	.	.	.	.	.
.	.	8B/J	.	8d\J	.	.	.	.	.	.
.	.	8c/L	.	8e\L	.	.	.	.	.	.
.	.	8A/J	.	8f\J	.	.	.	.	.	.
=26	=26	=26	=26	=26	=26	=26	=26	=26	=26	.
2r	.	4B\	.	2g\	.	2r	.	1r	.	.
.	.	4c\	tein	.	.	.	.	.	.	.
2G\	Vol-	4B\	al-	2d\	tein	2g/	Vol-	.	.	.
.	.	4B\	tra	.	.	.	.	.	.	.
=27	=27	=27	=27	=27	=27	=27	=27	=27	=27	.
8F\L	ges-	2c\	par-	2f\	al-	2a/	ges-	2r	.	.
8E\J	.	.	.	.	.	.	.	.	.	.
8F\L	.	.	.	.	.	.	.	.	.	.
8G\J	.	.	.	.	.	.	.	.	.	.
4A\	.	2c\	te.	2f\	tra	4cc\	tein	4r	.	.
4F\	tain	.	.	.	.	[4f/	al-	4a/	in	.
=28	=28	=28	=28	=28	=28	=28	=28	=28	=28	.
4.B\	al-	1r	.	8d\L	par-	4f/]	.	4dd\	al-	.
.	.	.	.	8e\J	.	.	.	.	.	.
.	.	.	.	2f\	.	4f/	tra	4cc\	tra	.
8A\	tra	.	.	.	.	.	.	.	.	.
2G\	par-	.	.	.	.	2g/	par-	2b-\	par-	.
.	.	.	.	4e\	.	.	.	.	.	.
=29	=29	=29	=29	=29	=29	=29	=29	=29	=29	.
1F\	te.	2r	.	1f\	te.	2cc\	te.	2a/	te.	>
.	.	[2A/	Don-	.	.	2r	.	[2cc\	Don-	<HOMlib_5v
=30	=30	=30	=30	=30	=30	=30	=30	=30	=30	.
1r	.	2A/]	.	1r	.	2e/	Don-	2cc\]	.	.
.	.	[2d\	na	.	.	[2f/	na	2a/	na	.
=31	=31	=31	=31	=31	=31	=31	=31	=31	=31	.
[1A\	Don-	2d\]	.	1r	.	2f/]	.	2r	.	.
.	.	[2c#\	Don-	.	.	[2e/	Don-	[2a/	Don-	.
=32	=32	=32	=32	=32	=32	=32	=32	=32	=32	.
2A\]	.	2c#\]	.	1A/	Don-	2e/]	.	2a/]	.	.
[2D\	na	2d\	na	.	.	2f/	na	4a/	na	.
.	.	.	.	.	.	.	.	4dd\	s'es-	.
=33	=33	=33	=33	=33	=33	=33	=33	=33	=33	.
2D\]	.	4r	.	2A/	na	4r	.	4.ff\	tin-	.
.	.	4f\	s'es-	.	.	4a/	s'es-	.	.	.
.	.	.	.	.	.	.	.	8ee\	sean-	.
2r	.	4g\	tin-	2r	.	4bn\	tin-	4dd\	coil	.
.	.	4a\	sean-	.	.	4a/	sean-	4cc\	mio	.
=34	=34	=34	=34	=34	=34	=34	=34	=34	=34	.
1r	.	4e\	coil	1r	.	4g/	coil	2.cc\	fo-	.
.	.	4f\	mio	.	.	4a/	mio	.	.	.
.	.	4.c\	fo-	.	.	4g/	fo-	.	.	.
.	.	.	.	.	.	4a/	coin	4cc\	coin	.
.	.	8d\	coin	.	.	.	.	.	.	.
=35	=35	=35	=35	=35	=35	=35	=35	=35	=35	.
2r	.	2e\	par-	2r	.	4a/	par-	2b\	par-	.
.	.	.	.	.	.	4g#/	.	.	.	.
4r	.	[2A/	te	4r	.	2a/	te	[2a/	te	>
[4D\	Sor-	.	.	[4f#\	Sor-	.	.	.	.	<CON_5v+1doub
=36	=36	=36	=36	=36	=36	=36	=36	=36	=36	.
4D\]	.	2A/]	.	4f#\]	.	1r	.	2a/]	.	.
4E\	se	.	.	4g\	se	.	.	.	.	.
2F#\	poi	4r	.	2a\	poi	.	.	2r	.	.
.	.	[4d\	Sor-	.	.	.	.	.	.	.
=37	=37	=37	=37	=37	=37	=37	=37	=37	=37	.
2G\	no-	4d\]	.	2b\	no-	2r	.	1r	.	.
.	.	4e\	se	.	.	.	.	.	.	.
2A\	voar-	2f#\	poi	2a\	voar-	[2cc\	Sor-	.	.	.
=38	=38	=38	=38	=38	=38	=38	=38	=38	=38	.
1G\	do-	2g\	no-	1d\	do-	4cc\]	.	2r	.	.
.	.	.	.	.	.	4b\	se	.	.	.
.	.	2G/	voar-	.	.	2b\	poi	[2dd\	Sor-	.
=39	=39	=39	=39	=39	=39	=39	=39	=39	=39	.
1D\	re	1A/	do-	2d\	re	2a/	no-	4dd\]	.	.
.	.	.	.	.	.	.	.	4ee\	se	.
.	.	.	.	2d\	Ma	2a/	voar-	2ff#\	poi	.
=40	=40	=40	=40	=40	=40	=40	=40	=40	=40	.
2r	.	2.d\	re	2B-\	fiam-	2g/	do-	4gg\	no-	.
.	.	.	.	.	.	.	.	4dd\	voar-	.
4r	.	.	.	2A/	ma	2a/	re	4ff\	do-	.
4AA/	Ma	4c\	Ma	.	.	.	.	4ee\	re	><CON_5v+2mot
=41	=41	=41	=41	=41	=41	=41	=41	=41	=41	.
8D\L	fiam-	4B-\	fiam-	2f\	f&ugrave;	2r	.	1r	.	.
8E\J	ma	.	.	.	.	.	.	.	.	.
8F\L	f&ugrave;	4A/	ma	.	.	.	.	.	.	.
8G\J	dis-	.	.	.	.	.	.	.	.	.
2A\	deg-	4.c\	f&ugrave;	4r	.	4r	.	.	.	.
.	.	.	.	4e\	Ma	4a/	Ma	.	.	.
.	.	8c\	dis-	.	.	.	.	.	.	.
=42	=42	=42	=42	=42	=42	=42	=42	=42	=42	.
2D\	no	1A/	deg-	8d\L	fiam-	2f/	fiam-	2r	.	.
.	.	.	.	8e\J	ma	.	.	.	.	.
.	.	.	.	8f\L	f&ugrave;	.	.	.	.	.
.	.	.	.	8g\J	dis-	.	.	.	.	.
4r	.	.	.	2a\	deg-	2e/	ma	2cc\	Ma	.
4A\	Ma	.	.	.	.	.	.	.	.	.
=43	=43	=43	=43	=43	=43	=43	=43	=43	=43	.
2F\	fiam-	2A/	no	4d\	no	4f/	f&ugrave;	8a\L	fiam-	.
.	.	.	.	.	.	.	.	8b\J	ma	.
.	.	.	.	2A/	Ma	4a/	dis-	8cc\L	f&ugrave;	.
.	.	.	.	.	.	.	.	8dd\J	dis-	.
2E\	ma	4r	.	.	.	[2bn\	deg-	2ee\	deg-	.
.	.	4g\	Ma	[4G/	fiam-	.	.	.	.	.
=44	=44	=44	=44	=44	=44	=44	=44	=44	=44	.
4G\	f&ugrave;	8d\L	fiam-	4G/]	.	4b\]	.	2dd\	no	.
.	.	8e\J	ma	.	.	.	.	.	.	.
4D\	dis-	8f\L	f&ugrave;	4A/	ma	2a/	no	.	.	.
.	.	8g\J	dis-	.	.	.	.	.	.	.
2C/	deg-	[2a\	deg-	2A/	f&ugrave;	.	.	4r	.	.
.	.	.	.	.	.	4a/	Ma	[4ee\	Ma	.
=45	=45	=45	=45	=45	=45	=45	=45	=45	=45	.
2D\	no	4a\]	.	4r	.	8f/L	fiam-	4ee\]	.	.
.	.	.	.	.	.	8g/J	ma	.	.	.
.	.	4f\	no	4d\	Ma	8a/L	f&ugrave;	2dd\	fiam-	.
.	.	.	.	.	.	8b/J	dis-	.	.	.
2E\	dis-	2e\	dis-	4G/	fiam-	4.cc\	deg-	.	.	.
.	.	.	.	4A/	ma	.	.	4cc\	ma	.
.	.	.	.	.	.	16b/LL	.	.	.	.
.	.	.	.	.	.	16a/JJ	.	.	.	.
=46	=46	=46	=46	=46	=46	=46	=46	=46	=46	.
1E\	deg-	1e\	deg-	4B\	f&ugrave;	4g#/	.	4b\	f&ugrave;	.
.	.	.	.	4c\	dis-	2a/	.	4a/	dis-	.
.	.	.	.	2B\	deg-	.	.	2b\	deg-	.
.	.	.	.	.	.	4g#/	.	.	.	.
=47	=47	=47	=47	=47	=47	=47	=47	=47	=47	.
2AA/	no	2e\	no	2c#\	no	2a/	no	2a/	no	>
2r	.	2r	.	2r	.	2r	.	2r	.	.
=48	=48	=48	=48	=48	=48	=48	=48	=48	=48	.
[2D\	Che'l	[2d\	Che'l	[2A/	Che'l	[2f#/	Che'l	1r	.	<HOM_5v
6D\]	.	6d\]	.	6A/]	.	6f#/]	.	.	.	.
3G\	mio	3d\	mio	3B\	mio	3g/	mio	.	.	.
=49	=49	=49	=49	=49	=49	=49	=49	=49	=49	.
2F\	do-	2f\	do-	2c\	do-	2a/	do-	1r	.	.
6D\	no	6f\	no	6d\	no	6a/	no	.	.	.
3A\	di	3e\	di	3c#\	di	3a/	di	.	.	.
=50	=50	=50	=50	=50	=50	=50	=50	=50	=50	.
[2D\	voi	3d\	voi	[2d\	voi	3a/	voi	[2dd\	Che'l	.
.	.	3d\	Che'l	.	.	3a/	Che'l	.	.	.
6D\]	.	.	.	6d\]	.	.	.	6dd\]	.	.
12r	.	3G/	mio	12r	.	3b\	mio	3gg\	mio	.
12r	.	.	.	12r	.	.	.	.	.	.
6r	.	.	.	6r	.	.	.	.	.	.
=51	=51	=51	=51	=51	=51	=51	=51	=51	=51	.
1r	.	2d\	do-	1r	.	2a/	do-	2ff#\	do-	.
.	.	6d\	no	.	.	6a/	no	6ff#\	no	.
.	.	3e\	di	.	.	3g/	di	3gg\	di	.
=52	=52	=52	=52	=52	=52	=52	=52	=52	=52	.
2r	.	2f#\	voi-	1r	.	2a/	voi-	2dd\	voi-	>
2G\	sti-	2g\	sti-	.	.	2b\	sti-	[2dd\	sti-	<HOMlib_5v
=53	=53	=53	=53	=53	=53	=53	=53	=53	=53	.
2F#\	ma-	2a\	ma-	2r	.	4dd\	ma-	2dd\]	.	.
.	.	.	.	.	.	4a/	tein-	.	.	.
2G\	tein-	4g\	.	2d\	sti-	2b\	deg-	[2gg\	ma-	.
.	.	4f\	.	.	.	.	.	.	.	.
=54	=54	=54	=54	=54	=54	=54	=54	=54	=54	.
1A\	deg-	2e\	tein-	2c#\	ma-	[1a/	no.	2gg\]	.	.
.	.	4f\	.	2d\	tein-	.	.	2ff\	tein-	.
.	.	[4d\	deg-	.	.	.	.	.	.	.
=55	=55	=55	=55	=55	=55	=55	=55	=55	=55	.
1A\	no.	4d\]	.	1e\	deg-	2a/]	.	1ee\	deg-	.
.	.	8c#\L	.	.	.	.	.	.	.	.
.	.	8B\J	.	.	.	.	.	.	.	.
.	.	2c#\	.	.	.	2r	.	.	.	.
=56	=56	=56	=56	=56	=56	=56	=56	=56	=56	.
4r	.	4d\	no.	2f#\	no.	2a/	Ques-	2dd\	no.	>
4d\	Ques-	4d\	Ques-	.	.	.	.	.	.	<ANTIF_4v+2mot
4c#\	to	4e\	to	2r	.	4a/	to	2r	.	.
4d\	sec-	4f\	sec-	.	.	4a/	sec-	.	.	.
=57	=57	=57	=57	=57	=57	=57	=57	=57	=57	.
4B\	c&ograve;	4d\	c&ograve;	1r	.	2g/	c&ograve;	1r	.	.
4c\	le	4e\	le	.	.	.	.	.	.	.
8F\L	chio-	8A\L	chio-	.	.	2f/	le	.	.	.
8G\J	.	8B\J	.	.	.	.	.	.	.	.
8A\L	.	8c\L	.	.	.	.	.	.	.	.
8B\J	.	8d\J	.	.	.	.	.	.	.	.
=58	=58	=58	=58	=58	=58	=58	=58	=58	=58	.
8c\L	.	8e\L	.	1r	.	2e/	chio-	1r	.	.
8B\J	.	8d\J	.	.	.	.	.	.	.	.
8A\L	.	8c\L	.	.	.	.	.	.	.	.
8G\J	.	8B\J	.	.	.	.	.	.	.	.
8F\L	.	2A/	.	.	.	2a/	me	.	.	.
8E\J	.	.	.	.	.	.	.	.	.	.
[4D\	.	.	.	.	.	.	.	.	.	.
=59	=59	=59	=59	=59	=59	=59	=59	=59	=59	.
8D\L]	.	4A/	me	2a\	Ques-	1r	.	2ff\	Ques-	.
8E\J	.	.	.	.	.	.	.	.	.	.
8F\L	.	4d\	Ques-	.	.	.	.	.	.	.
8G\J	.	.	.	.	.	.	.	.	.	.
4A\	.	4c#\	to	4a\	to	.	.	4ee\	to	.
4D\	me	4d\	sec-	4a\	sec-	.	.	4ff\	sec-	.
=60	=60	=60	=60	=60	=60	=60	=60	=60	=60	.
1r	.	4B\	c&ograve;	2g\	c&ograve;	1r	.	4dd\	c&ograve;	.
.	.	4c\	le	.	.	.	.	4ee\	le	.
.	.	8F/L	chio-	2f\	le	.	.	8a\L	chio-	.
.	.	8G/J	.	.	.	.	.	8b\J	.	.
.	.	8A/L	.	.	.	.	.	8cc\L	.	.
.	.	8B/J	.	.	.	.	.	8dd\J	.	.
=61	=61	=61	=61	=61	=61	=61	=61	=61	=61	.
1r	.	8c/L	.	2e\	chio-	4r	.	8ee\L	.	.
.	.	8B/J	.	.	.	.	.	8dd\J	.	.
.	.	8A/L	.	.	.	2e/	Del	8cc\L	.	<<CON_5v
.	.	8G/J	.	.	.	.	.	8b\J	.	.
.	.	4A/	.	4c\	me	.	.	8cc\L	.	.
.	.	.	.	.	.	.	.	8dd\J	.	.
.	.	8A/L	me	[4c\	Del	[4cc\	lau-	8ee\L	.	.
.	.	8A/J	Del	.	.	.	.	8ff\J	.	.
=62	=62	=62	=62	=62	=62	=62	=62	=62	=62	.
4r	.	4e\	lau-	4c\]	.	4cc\]	.	4gg\	.	.
4F\	Del	4c\	roon-	2f\	lau-	4a/	ro	4ff\	me	>
2B-\	lau-	4d\	deho-	.	.	4f/	Del	4r	.	.
.	.	4G/	no-	4d\	roon-	[4b-\	lau-	[4dd\	Del	.
=63	=63	=63	=63	=63	=63	=63	=63	=63	=63	.
2G\	roon-	2d\	ra-	2.g\	deho-	4b-\]	.	4dd\]	.	.
.	.	.	.	.	.	2g/	roon-	2gg\	lau-	.
2c\	deho-	2e\	vail-	.	.	.	.	.	.	.
.	.	.	.	4g\	no-	[4cc\	deho-	4ee\	roon-	.
=64	=64	=64	=64	=64	=64	=64	=64	=64	=64	.
2A\	no-	2c\	vos-	2.a\	ra-	4cc\]	.	4ff\	deho-	.
.	.	.	.	.	.	4a/	no-	4ee\	no-	.
2B\	ra-	2d\	tro	.	.	4d/	ra-	2dd\	ra-	.
.	.	.	.	4g\	vail	[4g/	vail	.	.	.
=65	=65	=65	=65	=65	=65	=65	=65	=65	=65	.
2c\	vail	2c\	no-	4e\	vos-	4g/]	.	2ee\	vail	.
.	.	.	.	4e\	tro	2a/	vos-	.	.	.
4F\	vos-	2d\	meil	2f\	no-	.	.	2dd\	vos-	.
4G\	tro	.	.	.	.	4b-\	tro	.	.	.
=66	=66	=66	=66	=66	=66	=66	=66	=66	=66	.
1A\	no-	4a\	vos-	4e\	me	1a/	no-	4cc#\	tro	.
.	.	4f\	tro	4A/	Del	.	.	2dd\	no-	.
.	.	2e\	no-	2e\	lau-	.	.	.	.	.
.	.	.	.	.	.	.	.	4cc#\	.	.
=67	=67	=67	=67	=67	=67	=67	=67	=67	=67	.
1D\	me	1f#\	me	2d\	roon-	2a/	me	1dd\	me	.
.	.	.	.	4.A/	deho-	2a/	il	.	.	.
.	.	.	.	8B\	no-	.	.	.	.	.
=68	=68	=68	=68	=68	=68	=68	=68	=68	=68	.
1r	.	1r	.	4c#\	ra-	2e/	vos-	1r	.	.
.	.	.	.	4c#\	vail	.	.	.	.	.
.	.	.	.	[2d\	vos-	2f/	tro	.	.	.
=69	=69	=69	=69	=69	=69	=69	=69	=69	=69	.
2AA/	Del	1r	.	4d\]	.	1e/	no-	2ee\	il	.
.	.	.	.	4c\	tro	.	.	.	.	.
2A\	lau-	.	.	2c\	no-	.	.	2a/	vos-	.
=70	=70	=70	=70	=70	=70	=70	=70	=70	=70	.
2G\	roon-	2r	.	2d\	me	2g/	me	2b-\	tro	.
4.D\	deho-	2d\	il	2f\	on-	2r	.	[2a/	no-	.
8E\	no-	.	.	.	.	.	.	.	.	.
=71	=71	=71	=71	=71	=71	=71	=71	=71	=71	.
4F#\	ra-	2A/	vos-	2d\	deho-	2r	.	2a/]	.	.
4F#\	vail	.	.	.	.	.	.	.	.	.
[2G\	vos-	2B-\	tro	2d\	no-	2d/	Del	2g/	me	.
=72	=72	=72	=72	=72	=72	=72	=72	=72	=72	.
2G\]	.	1A/	no-	2.d\	ra-	1a/	lau-	1r	.	.
2F#\	tro	.	.	.	.	.	.	.	.	.
.	.	.	.	4d\	vail	.	.	.	.	.
=73	=73	=73	=73	=73	=73	=73	=73	=73	=73	.
2G\	no-	4B\	me	2B\	vos-	2g/	roon-	2dd\	Del	.
.	.	4B\	on	.	.	.	.	.	.	.
2D\	me	4.A/	deho	2d\	tro	4.f/	deho-	2ff\	lau-	.
.	.	8B\	no-	.	.	8g/	no-	.	.	.
=74	=74	=74	=74	=74	=74	=74	=74	=74	=74	.
2r	.	2c#\	ra-	2A/	no-	4a/	ra-	2ee\	roon-	.
.	.	.	.	.	.	4a/	vail	.	.	.
4r	.	2d\	va	4f\	me	[2a/	vos-	4.a/	deho-	.
4d\	il	.	.	4f\	il	.	.	.	.	.
.	.	.	.	.	.	.	.	8b\	no-	.
=75	=75	=75	=75	=75	=75	=75	=75	=75	=75	.
2A\	vos-	1r	.	2e\	vos-	2a/]	.	4cc#\	ra-	.
.	.	.	.	.	.	.	.	4cc#\	vail	.
2B-\	tro	.	.	2d\	tro	2g/	tro	[2dd\	vos-	.
=76	=76	=76	=76	=76	=76	=76	=76	=76	=76	.
[1A\	no-	2r	.	2.e\	no-	[1a/	no-	2dd\]	.	.
.	.	2a\	il	.	.	.	.	2cc#\	tro	.
.	.	.	.	4d\	.	.	.	.	.	.
=77	=77	=77	=77	=77	=77	=77	=77	=77	=77	.
1A\_	.	2e\	vos-	2c#\	.	1a/_	.	2ee\	no-	.
.	.	2f\	tro	2d\	.	.	.	[2dd\	.	.
=78	=78	=78	=78	=78	=78	=78	=78	=78	=78	.
1A\]	.	1e\	no-	1e\	.	1a/]	.	4dd\]	.	.
.	.	.	.	.	.	.	.	8cc\L	.	.
.	.	.	.	.	.	.	.	8b\J	.	.
.	.	.	.	.	.	.	.	2cc#\	.	.
=79	=79	=79	=79	=79	=79	=79	=79	=79	=79	.
1D\	me.	1d\	me.	1f#\	me.	1a/	me.	1dd\	me.	>
==	==	==	==	==	==	==	==	==	==	==
*-	*-	*-	*-	*-	*-	*-	*-	*-	*-	*-